icons/drag-32.svg

<svg xmlns="http://www.w3.org/2000/svg" viewBox="0 0 32 32"><path d="M21.95 15.5a1.45 1.45 0 11-1.45-1.45 1.45 1.45 0 011.45 1.45zM10.5 14.05a1.45 1.45 0 101.45 1.45 1.45 1.45 0 00-1.45-1.45zm1.45 11.45a1.45 1.45 0 10-1.45 1.45 1.45 1.45 0 001.45-1.45zm8.55-1.45a1.45 1.45 0 101.45 1.45 1.45 1.45 0 00-1.45-1.45zm-10-20a1.45 1.45 0 101.45 1.45 1.45 1.45 0 00-1.45-1.45zm10 0a1.45 1.45 0 101.45 1.45 1.45 1.45 0 00-1.45-1.45z"/></svg>

<svg xmlns="http://www.w3.org/2000/svg" viewBox="0 0 32 32"><title>drag-32</title><g id="icons"><path d="M21.95,15.5a1.45,1.45,0,1,1-1.45-1.45A1.45,1.45,0,0,1,21.95,15.5ZM10.5,14.05a1.45,1.45,0,1,0,1.45,1.45A1.45,1.45,0,0,0,10.5,14.05ZM11.95,25.5a1.45,1.45,0,1,0-1.45,1.45A1.45,1.45,0,0,0,11.95,25.5Zm8.55-1.45a1.45,1.45,0,1,0,1.45,1.45A1.45,1.45,0,0,0,20.5,24.05Zm-10-20A1.45,1.45,0,1,0,11.95,5.5,1.45,1.45,0,0,0,10.5,4.05Zm10,0A1.45,1.45,0,1,0,21.95,5.5,1.45,1.45,0,0,0,20.5,4.05Z"/></g></svg>
